X: 807
T: Gelin Gidelim Allah Yoluna
C: Dede Efendi
O: Turkey
F: http://compmusic.upf.edu/node/140
N: hicaz-humayun--ilahi--sofyan--gelin_gidelim--dede_efendi
N: makam= hicaz-humayun
N: form= ilahi
N: usul= sofyan = 4/4
M: 4/4
L: 1/16
K: C _7/8B ^c  
Q: 1/4=66
%%MIDI tuningsystem comma53
d3e e4 e4 e4  | z2g2 f2e2 d2c2 B2A2  | \
w:  Ge *  lin  gi de  |  lim  *  e fen *  dim    | 
e3d d3c c3B A2e2  | 
w:  Al *  lah  *  yo *  lu  | 
e2d2 c2d2 e4 z4  | d3e e4 e4 e4  | z2g2 f2e2 d2c2 B2A2  | \
w:  na    |  Ge *  lin  gi de  |  lim  *  e fen *  dim    | 
e3d d3c c3B A2e2  | 
w:  Al *  lah  *  yo *  lu  | 
e2d2 c2d2 e4 z4  | d2e2 d2c2 B3A A4  | \
w:  na    |  Fer *  yâd  *  e *  de  | 
z2g2 f2e2 d2c2 B2A2  | 
w:  lim  *  e fen *  dim    | 
e3d d3c B3A G4  | ABc4BA d6z2  | d2e2 d2c2 B3A A4  | 
w:  Al *  lah  *  yo *  lu  |  na    |  Fer *  yâd  *  e *  de  | 
z2g2 f2e2 d2c2 B2A2  | e3d d3c B3A G4  | \
w:  lim  *  e fen *  dim    |  Al *  lah  *  yo *  lu  | 
ABc4BA A6z2  | 
w:  na    | 
d3e e4 e4 e4  | z2g2 f2e2 d2c2 B2A2  | \
w:  Bir  *  yı lı  bir   |  gün  *  e fen *  dim    | 
e3d d3c c3B A2e2  | 
w:  Ge *  le *  cek  *  ol   | 
e2d2 c2d2 e4 z4  | d3e e4 e4 e4  | z2g2 f2e2 d2c2 B2A2  | \
w:  gün    |  Bir  *  yı lı  bir   |  gün  *  e fen *  dim    | 
e3d d3c c3B A2e2  | 
w:  Ge *  le *  cek  *  ol   | 
e2d2 c2d2 e4 z4  | d2e2 d2c2 B3A A4  | \
w:  gün    |  Sü *  re *  gel  *  yü  | 
z2g2 f2e2 d2c2 B2A2  | 
w:  zün  *  e fen *  dim    | 
e3d d3c B3A G4  | ABc4BA d6z2  | d2e2 d2c2 B3A A4  | 
w:  Al *  lah  *  yo *  lu  |  na    |  Sü *  re *  gel  *  yü  | 
z2g2 f2e2 d2c2 B2A2  | e3d d3c B3A G4  | \
w:  zün  *  e fen *  dim    |  Al *  lah  *  yo *  lu  | 
ABc4BA A6z2  | 
w:  na    | 
d3e e4 e4 e4  | z2g2 f2e2 d2c2 B2A2  | \
w:  Ge *  lin  gi de  |  lim  *  e fen *  dim    | 
e3d d3c c3B A2e2  | 
w:  Al *  lah  *  yo *  lu  | 
e2d2 c2d2 e4 z4  | d3e e4 e4 e4  | z2g2 f2e2 d2c2 B2A2  | \
w:  na    |  Ge *  lin  gi de  |  lim  *  e fen *  dim    | 
e3d d3c c3B A2e2  | 
w:  Al *  lah  *  yo *  lu  | 
e2d2 c2d2 e4 z4  | d2e2 d2c2 B3A A4  | \
w:  na    |  Fer *  yâd  *  e *  de  | 
z2g2 f2e2 d2c2 B2A2  | 
w:  lim  *  e fen *  dim    | 
e3d d3c B3A G4  | ABc4BA d6z2  | d2e2 d2c2 B3A A4  | 
w:  Al *  lah  *  yo *  lu  |  na    |  Fer *  yâd  *  e *  de  | 
z2g2 f2e2 d2c2 B2A2  | e3d d3c B3A G4  | \
w:  lim  *  e fen *  dim    |  Al *  lah  *  yo *  lu  | 
ABc4BA A6z2  | 
w:  na    | 
d3e e4 e4 e4  | z2g2 f2e2 d2c2 B2A2  | \
w:  Bir  *  yı lı  bir   |  gün  *  e fen *  dim    | 
e3d d3c c3B A2e2  | 
w:  Ge *  le *  cek  *  ol   | 
e2d2 c2d2 e4 z4  | d3e e4 e4 e4  | z2g2 f2e2 d2c2 B2A2  | \
w:  gün    |  Bir  *  yı lı  bir   |  gün  *  e fen *  dim    | 
e3d d3c c3B A2e2  | 
w:  Ge *  le *  cek  *  ol   | 
e2d2 c2d2 e4 z4  | d2e2 d2c2 B3A A4  | \
w:  gün    |  Sü *  re *  gel  *  yü  | 
z2g2 f2e2 d2c2 B2A2  | 
w:  zün  *  e fen *  dim    | 
e3d d3c B3A G4  | ABc4BA d6z2  | d2e2 d2c2 B3A A4  | 
w:  Al *  lah  *  yo *  lu  |  na    |  Sü *  re *  gel  *  yü  | 
z2g2 f2e2 d2c2 B2A2  | e3d d3c B3A G4  | \
w:  zün  *  e fen *  dim    |  Al *  lah  *  yo *  lu  | 
ABc4BA A6z2  | 
w:  na    | 
|


